X: 1
T: Dovecote Park
C: J. Braidwood
R: jig
S: printed page in Concord Slow Scottish Session collection
Z: 2015 John Chambers <jc:trillian.mit.edu>
M: 6/8
L: 1/8
K: D
f "A"|\
"D"AAA "G"B2A | "D"Adf a2g | "D"fef "Bm"Adf | "Em"afd "A7"e2f |\
"D"AAA "G"B2A | "D"Adf "Bm"a2g | "Em7"fga "A7"ecA | "D"d3 d2 :|
[| g "B"|\
"D"fga d2e | "D"fed "Bm"a2f | "Em"efe ABc | "A7"egf e2g |\
"D"fga d2e | "D"fed "Bm"a2f | "Em7"fga "A7"ecA | "D"d3 d2 ||
y  g |\
"D"fga d2e | "D"fed "Bm"a2f | "Em"efe ABc | "A7"egf e2f |\
"D"AAA "G"B2A | "D"Adf "Bm"a2g | "Em7"fga "A7"ecA | "D"d3 d2 :|
|: f "C"|\
"D"Adf fef | "D"Adf a2g | "D"fed "Bm"Adf | "Em"e3 "A7"e2f |\
"D"Adf fef | "D"afd "G"B2g | "Em7"fga "A7"ecA | "D"d3 d2 :|
[| g "D"|\
"D"afd Adf | "D7"fed "G"B2d | "D"Adf "Bm"afd | "Em"e3 "A7"e2g |\
"D"afd Adf | "D7"fed "G"B2g | "Em7"fga "A7"ecA | "D"d3 d2 ||
y  g |\
"D"afd Adf | "D7"fed "G"B2d | "D"Adf "Bm"afd | "Em"e3 "A7"e2f |\
"D"Adf fef | "D7"afd "G"B2g | "Em7"fga "A7"ecA | "D"d3 d2 :|
